X:1
T:Title
%%score ( 1 2 ) { ( 3 5 ) | 4 }
L:1/8
Q:1/4=108
M:4/4
K:G
V:1 treble nm="Grand Piano, Soprano"
V:2 treble 
V:3 bass nm="Choir Pad, Hallelujah, Bless His Name"
V:5 bass 
V:4 bass 
V:1
 z2 G2 z2 G2 | z2 G6 | D2 A2 A2 A2 | c2 A2- [FA-]2 [FA]2 | D2 [Gd]2 [Fd]2 [Gd]2 | [Gd]2 d2 c4 | %6
 z2 G4 F2- | F2 z2 z4 | z4 G4 | B>G A2 [FA]>F FF | [Fc]>[FA] [GB]2 [Gd]2 [Fd]2 | [E^c]2 [Fd]6 | %12
 z4 G4 | B>G A2 A->[FA-] [FA-][FA] | [Fc]>[FA] [GB][=Fd]- [Fd][Fd] [Fd]2 | [DF]2 [DG]6- | %16
 [DG]2 z2 z4 |] %17
V:2
 D2 D2- [DG]2 D2- | [DB]2 D2 D2 D2 | z2 F4 F2- | F2 F2 z4 | x8 | z2 G6 | A2 z2 D2 D2 | D2 [DG]6 | %8
 D>D G2 D>D DD | x8 | x8 | x8 | D>D G2 D>D DD | z4 F2 z2 | x8 | x8 | x8 |] %17
V:3
 D,2 B,4 G,2- | G,2 B,2 B,2 B,2 | B,2[K:treble] D4 D2- | D2 D2 D2 D2 | F,2 G,2[K:treble] C2 B,2 | %5
 =F2 F2 E4 | C2[K:bass] B,2 B,2 A,2 | C2 B,6 | z4 B,>B, B,B, | z4[K:treble] C>C CC | %10
 A,>D D2 D2 D2 | A,2 A,2 E>E D2 | C2[K:bass] z2 B,>B, B,B, | z4[K:treble] C>C CC | %14
 A,>D D[K:bass]B,- B,B, B,2 | C2 B,6- | B,2 z2 z4 |] %17
V:4
 z2 G,,2 G,,2 B,,2 | D,2 G,6 | G,2 D,2 D,2 F,2 | A,2 D,6 | D,C, B,,2 D,2 G,2 | B,2 C6 | %6
 z4 G,2 D,2 | D,2 [G,,G,]6 | z4 z z/ G,/ G,G, | z4 z z/ D,/ D,D, | D,>D, G,2 B,2 A,2 | %11
 z2 D,2 C>C B,2 | A,2 z2 z z/ G,/ G,G, | z4 z z/ D,/ D,D, | D,>D, G,^G,- G,G, G,2 | D,2 [G,,G,]6- | %16
 [G,,G,]2 z2 z4 |] %17
V:5
 x8 | x8 | x2[K:treble] x6 | x8 | x4[K:treble] x4 | x8 | x2[K:bass] x6 | x8 | z2 .G,4 z2 | %9
 z2 D,4[K:treble] z2 | x8 | x8 | z2[K:bass] G,4 z2 | z2 D,4[K:treble] z2 | x3[K:bass] x5 | x8 | %16
 x8 |] %17

